assets/logos/facebook.svg

<svg width="80" height="80" viewBox="0 0 80 80" fill="none" xmlns="http://www.w3.org/2000/svg">
<path d="M40 72C57.6731 72 72 57.6731 72 40C72 22.3269 57.6731 8 40 8C22.3269 8 8 22.3269 8 40C8 57.6731 22.3269 72 40 72Z" fill="#1977F3"/>
<path d="M52.4561 49.2523L53.8736 40.0001H44.9995V33.997C44.9995 31.468 46.237 28.9975 50.215 28.9975H54.2516V21.1223C54.2516 21.1223 50.5885 20.4968 47.0875 20.4968C39.7794 20.4968 35.0003 24.9249 35.0003 32.9485V40.0001H26.8732V49.2523H35.0003V71.6131C36.6293 71.8696 38.2988 72.0001 39.9999 72.0001C41.7009 72.0001 43.3704 71.8651 44.9995 71.6131V49.2523H52.4561Z" fill="white"/>
</svg>

<svg xmlns="http://www.w3.org/2000/svg" width="80" height="80" fill="none" viewBox="0 0 80 80"><path fill="#1977f3" d="M40 72c17.673 0 32-14.327 32-32S57.673 8 40 8 8 22.327 8 40s14.327 32 32 32"/><path fill="#fff" d="M52.456 49.252 53.874 40h-8.875v-6.003c0-2.529 1.238-5 5.216-5h4.037v-7.875s-3.663-.625-7.165-.625C39.78 20.497 35 24.925 35 32.949V40h-8.127v9.252H35v22.361Q37.447 72 40 72c1.7 0 3.37-.135 5-.387v-22.36z"/></svg>
